images/1268303.svg

<?xml version="1.0" encoding="UTF-8"?>
<svg xmlns="http://www.w3.org/2000/svg" xmlns:xlink="http://www.w3.org/1999/xlink" width="300pt" height="300pt" viewBox="0 0 300 300" version="1.1">
<defs>
<g>
<symbol overflow="visible" id="glyph0-0">
<path style="stroke:none;" d="M 0.546875 1.9375 L 0.546875 -7.75 L 6.046875 -7.75 L 6.046875 1.9375 Z M 1.171875 1.328125 L 5.4375 1.328125 L 5.4375 -7.140625 L 1.171875 -7.140625 Z M 1.171875 1.328125 "/>
</symbol>
<symbol overflow="visible" id="glyph0-1">
<path style="stroke:none;" d="M 1.078125 -8.015625 L 2.546875 -8.015625 L 6.09375 -1.3125 L 6.09375 -8.015625 L 7.15625 -8.015625 L 7.15625 0 L 5.6875 0 L 2.125 -6.703125 L 2.125 0 L 1.078125 0 Z M 1.078125 -8.015625 "/>
</symbol>
<symbol overflow="visible" id="glyph0-2">
<path style="stroke:none;" d="M 4.328125 -7.28125 C 3.546875 -7.28125 2.921875 -6.984375 2.453125 -6.390625 C 1.992188 -5.804688 1.765625 -5.007812 1.765625 -4 C 1.765625 -2.988281 1.992188 -2.1875 2.453125 -1.59375 C 2.921875 -1.007812 3.546875 -0.71875 4.328125 -0.71875 C 5.117188 -0.71875 5.742188 -1.007812 6.203125 -1.59375 C 6.660156 -2.1875 6.890625 -2.988281 6.890625 -4 C 6.890625 -5.007812 6.660156 -5.804688 6.203125 -6.390625 C 5.742188 -6.984375 5.117188 -7.28125 4.328125 -7.28125 Z M 4.328125 -8.171875 C 5.453125 -8.171875 6.351562 -7.789062 7.03125 -7.03125 C 7.707031 -6.28125 8.046875 -5.269531 8.046875 -4 C 8.046875 -2.738281 7.707031 -1.726562 7.03125 -0.96875 C 6.351562 -0.21875 5.453125 0.15625 4.328125 0.15625 C 3.203125 0.15625 2.300781 -0.21875 1.625 -0.96875 C 0.957031 -1.71875 0.625 -2.726562 0.625 -4 C 0.625 -5.269531 0.957031 -6.28125 1.625 -7.03125 C 2.300781 -7.789062 3.203125 -8.171875 4.328125 -8.171875 Z M 4.328125 -8.171875 "/>
</symbol>
</g>
</defs>
<g id="surface44537">
<rect x="0" y="0" width="300" height="300" style="fill:rgb(100%,100%,100%);fill-opacity:1;stroke:none;"/>
<path style="fill:none;stroke-width:1.2;stroke-linecap:butt;stroke-linejoin:miter;stroke:rgb(0%,0%,0%);stroke-opacity:1;stroke-miterlimit:10;" d="M 167.917969 104.945312 L 155.035156 108.886719 "/>
<path style="fill:none;stroke-width:1.2;stroke-linecap:butt;stroke-linejoin:miter;stroke:rgb(0%,0%,100%);stroke-opacity:1;stroke-miterlimit:10;" d="M 155.035156 108.886719 L 142.152344 112.832031 "/>
<path style="fill:none;stroke-width:1.2;stroke-linecap:butt;stroke-linejoin:miter;stroke:rgb(0%,0%,100%);stroke-opacity:1;stroke-miterlimit:10;" d="M 142.152344 112.832031 L 132.296875 103.648438 "/>
<path style="fill:none;stroke-width:1.2;stroke-linecap:butt;stroke-linejoin:miter;stroke:rgb(0%,0%,0%);stroke-opacity:1;stroke-miterlimit:10;" d="M 132.296875 103.648438 L 122.441406 94.464844 "/>
<path style="fill:none;stroke-width:1.2;stroke-linecap:butt;stroke-linejoin:miter;stroke:rgb(0%,0%,0%);stroke-opacity:1;stroke-miterlimit:10;" d="M 136.101562 139.085938 L 139.125 125.960938 "/>
<path style="fill:none;stroke-width:1.2;stroke-linecap:butt;stroke-linejoin:miter;stroke:rgb(0%,0%,100%);stroke-opacity:1;stroke-miterlimit:10;" d="M 139.125 125.960938 L 142.152344 112.832031 "/>
<path style=" stroke:none;fill-rule:nonzero;fill:rgb(100%,100%,100%);fill-opacity:1;" d="M 138.152344 106.332031 L 146.152344 106.332031 L 146.152344 119.332031 L 138.152344 119.332031 Z M 138.152344 106.332031 "/>
<g style="fill:rgb(0%,0%,100%);fill-opacity:1;">
  <use xlink:href="#glyph0-1" x="138.152344" y="116.233398"/>
</g>
<path style="fill:none;stroke-width:1.2;stroke-linecap:butt;stroke-linejoin:miter;stroke:rgb(0%,0%,0%);stroke-opacity:1;stroke-miterlimit:10;" d="M 122.441406 94.464844 L 96.679688 102.347656 "/>
<path style="fill:none;stroke-width:1.2;stroke-linecap:butt;stroke-linejoin:miter;stroke:rgb(0%,0%,0%);stroke-opacity:1;stroke-miterlimit:10;" d="M 96.679688 102.347656 L 90.625 128.605469 "/>
<path style="fill:none;stroke-width:1.2;stroke-linecap:butt;stroke-linejoin:miter;stroke:rgb(0%,0%,0%);stroke-opacity:1;stroke-miterlimit:10;" d="M 90.625 128.605469 L 64.863281 136.492188 "/>
<path style="fill:none;stroke-width:1.2;stroke-linecap:butt;stroke-linejoin:miter;stroke:rgb(0%,0%,0%);stroke-opacity:1;stroke-miterlimit:10;" d="M 89.90625 135.453125 L 69.292969 141.765625 "/>
<path style="fill:none;stroke-width:1.2;stroke-linecap:butt;stroke-linejoin:miter;stroke:rgb(0%,0%,0%);stroke-opacity:1;stroke-miterlimit:10;" d="M 110.335938 146.972656 L 90.625 128.605469 "/>
<path style="fill:none;stroke-width:1.2;stroke-linecap:butt;stroke-linejoin:miter;stroke:rgb(0%,0%,0%);stroke-opacity:1;stroke-miterlimit:10;" d="M 64.863281 136.492188 L 58.8125 162.746094 "/>
<path style="fill:none;stroke-width:1.2;stroke-linecap:butt;stroke-linejoin:miter;stroke:rgb(0%,0%,0%);stroke-opacity:1;stroke-miterlimit:10;" d="M 58.8125 162.746094 L 78.523438 181.113281 "/>
<path style="fill:none;stroke-width:1.2;stroke-linecap:butt;stroke-linejoin:miter;stroke:rgb(0%,0%,0%);stroke-opacity:1;stroke-miterlimit:10;" d="M 56.460938 169.21875 L 72.230469 183.914062 "/>
<path style="fill:none;stroke-width:1.2;stroke-linecap:butt;stroke-linejoin:miter;stroke:rgb(100%,0%,0%);stroke-opacity:1;stroke-miterlimit:10;" d="M 35.25 175.816406 L 47.03125 169.28125 "/>
<path style="fill:none;stroke-width:1.2;stroke-linecap:butt;stroke-linejoin:miter;stroke:rgb(0%,0%,0%);stroke-opacity:1;stroke-miterlimit:10;" d="M 47.03125 169.28125 L 58.8125 162.746094 "/>
<path style="fill:none;stroke-width:1.2;stroke-linecap:butt;stroke-linejoin:miter;stroke:rgb(0%,0%,0%);stroke-opacity:1;stroke-miterlimit:10;" d="M 78.523438 181.113281 L 104.285156 173.226562 "/>
<path style="fill:none;stroke-width:1.2;stroke-linecap:butt;stroke-linejoin:miter;stroke:rgb(0%,0%,0%);stroke-opacity:1;stroke-miterlimit:10;" d="M 78.523438 181.113281 L 72.832031 193.324219 "/>
<path style="fill:none;stroke-width:1.2;stroke-linecap:butt;stroke-linejoin:miter;stroke:rgb(100%,0%,0%);stroke-opacity:1;stroke-miterlimit:10;" d="M 72.832031 193.324219 L 67.144531 205.535156 "/>
<path style="fill:none;stroke-width:1.2;stroke-linecap:butt;stroke-linejoin:miter;stroke:rgb(0%,0%,0%);stroke-opacity:1;stroke-miterlimit:10;" d="M 104.285156 173.226562 L 110.335938 146.972656 "/>
<path style="fill:none;stroke-width:1.2;stroke-linecap:butt;stroke-linejoin:miter;stroke:rgb(0%,0%,0%);stroke-opacity:1;stroke-miterlimit:10;" d="M 98.714844 169.179688 L 103.554688 148.175781 "/>
<path style=" stroke:none;fill-rule:nonzero;fill:rgb(0%,0%,0%);fill-opacity:1;" d="M 136.101562 139.085938 L 108.945312 142.425781 L 111.730469 151.519531 Z M 136.101562 139.085938 "/>
<path style="fill:none;stroke-width:1.2;stroke-linecap:butt;stroke-linejoin:miter;stroke:rgb(0%,0%,0%);stroke-opacity:1;stroke-miterlimit:10;" d="M 136.101562 139.085938 L 155.8125 157.457031 "/>
<path style=" stroke:none;fill-rule:nonzero;fill:rgb(0%,0%,0%);fill-opacity:1;" d="M 155.8125 157.457031 L 183.167969 156.972656 L 181.351562 147.636719 Z M 155.8125 157.457031 "/>
<path style="fill:none;stroke-width:1.2;stroke-linecap:butt;stroke-linejoin:miter;stroke:rgb(0%,0%,0%);stroke-opacity:1;stroke-miterlimit:10;" d="M 152.539062 184.199219 L 155.8125 157.457031 "/>
<path style="fill:none;stroke-width:1.2;stroke-linecap:butt;stroke-linejoin:miter;stroke:rgb(0%,0%,0%);stroke-opacity:1;stroke-miterlimit:10;" d="M 182.257812 152.304688 L 195.328125 175.867188 "/>
<path style="fill:none;stroke-width:1.2;stroke-linecap:butt;stroke-linejoin:miter;stroke:rgb(0%,0%,0%);stroke-opacity:1;stroke-miterlimit:10;" d="M 196.128906 129.207031 L 182.257812 152.304688 "/>
<path style="fill:none;stroke-width:1.2;stroke-linecap:butt;stroke-linejoin:miter;stroke:rgb(0%,0%,0%);stroke-opacity:1;stroke-miterlimit:10;" d="M 200.175781 134.777344 L 189.082031 153.257812 "/>
<path style="fill:none;stroke-width:1.2;stroke-linecap:butt;stroke-linejoin:miter;stroke:rgb(0%,0%,0%);stroke-opacity:1;stroke-miterlimit:10;" d="M 195.328125 175.867188 L 222.269531 176.328125 "/>
<path style="fill:none;stroke-width:1.2;stroke-linecap:butt;stroke-linejoin:miter;stroke:rgb(0%,0%,0%);stroke-opacity:1;stroke-miterlimit:10;" d="M 198.132812 169.574219 L 219.683594 169.941406 "/>
<path style="fill:none;stroke-width:1.2;stroke-linecap:butt;stroke-linejoin:miter;stroke:rgb(0%,0%,0%);stroke-opacity:1;stroke-miterlimit:10;" d="M 195.328125 175.867188 L 186.144531 185.722656 "/>
<path style="fill:none;stroke-width:1.2;stroke-linecap:butt;stroke-linejoin:miter;stroke:rgb(100%,0%,0%);stroke-opacity:1;stroke-miterlimit:10;" d="M 186.144531 185.722656 L 176.960938 195.578125 "/>
<path style="fill:none;stroke-width:1.2;stroke-linecap:butt;stroke-linejoin:miter;stroke:rgb(0%,0%,0%);stroke-opacity:1;stroke-miterlimit:10;" d="M 222.269531 176.328125 L 236.136719 153.226562 "/>
<path style="fill:none;stroke-width:1.2;stroke-linecap:butt;stroke-linejoin:miter;stroke:rgb(100%,0%,0%);stroke-opacity:1;stroke-miterlimit:10;" d="M 239.953125 196.65625 L 231.109375 186.492188 "/>
<path style="fill:none;stroke-width:1.2;stroke-linecap:butt;stroke-linejoin:miter;stroke:rgb(0%,0%,0%);stroke-opacity:1;stroke-miterlimit:10;" d="M 231.109375 186.492188 L 222.269531 176.328125 "/>
<path style="fill:none;stroke-width:1.2;stroke-linecap:butt;stroke-linejoin:miter;stroke:rgb(0%,0%,0%);stroke-opacity:1;stroke-miterlimit:10;" d="M 236.136719 153.226562 L 223.066406 129.667969 "/>
<path style="fill:none;stroke-width:1.2;stroke-linecap:butt;stroke-linejoin:miter;stroke:rgb(0%,0%,0%);stroke-opacity:1;stroke-miterlimit:10;" d="M 229.285156 153.945312 L 218.832031 135.097656 "/>
<path style="fill:none;stroke-width:1.2;stroke-linecap:butt;stroke-linejoin:miter;stroke:rgb(0%,0%,0%);stroke-opacity:1;stroke-miterlimit:10;" d="M 236.136719 153.226562 L 249.265625 156.253906 "/>
<path style="fill:none;stroke-width:1.2;stroke-linecap:butt;stroke-linejoin:miter;stroke:rgb(100%,0%,0%);stroke-opacity:1;stroke-miterlimit:10;" d="M 249.265625 156.253906 L 262.390625 159.277344 "/>
<path style="fill:none;stroke-width:1.2;stroke-linecap:butt;stroke-linejoin:miter;stroke:rgb(0%,0%,0%);stroke-opacity:1;stroke-miterlimit:10;" d="M 223.066406 129.667969 L 196.128906 129.207031 "/>
<path style="fill:none;stroke-width:1.2;stroke-linecap:butt;stroke-linejoin:miter;stroke:rgb(100%,0%,0%);stroke-opacity:1;stroke-miterlimit:10;" d="M 262.390625 159.277344 L 263.570312 172.699219 "/>
<path style="fill:none;stroke-width:1.2;stroke-linecap:butt;stroke-linejoin:miter;stroke:rgb(0%,0%,0%);stroke-opacity:1;stroke-miterlimit:10;" d="M 263.570312 172.699219 L 264.75 186.117188 "/>
<path style=" stroke:none;fill-rule:nonzero;fill:rgb(100%,100%,100%);fill-opacity:1;" d="M 258.390625 152.777344 L 267.390625 152.777344 L 267.390625 165.777344 L 258.390625 165.777344 Z M 258.390625 152.777344 "/>
<g style="fill:rgb(100%,0%,0%);fill-opacity:1;">
  <use xlink:href="#glyph0-2" x="258.390625" y="162.678711"/>
</g>
<path style="fill:none;stroke-width:1.2;stroke-linecap:butt;stroke-linejoin:miter;stroke:rgb(0%,0%,0%);stroke-opacity:1;stroke-miterlimit:10;" d="M 264.75 186.117188 L 252.351562 191.386719 "/>
<path style="fill:none;stroke-width:1.2;stroke-linecap:butt;stroke-linejoin:miter;stroke:rgb(100%,0%,0%);stroke-opacity:1;stroke-miterlimit:10;" d="M 252.351562 191.386719 L 239.953125 196.65625 "/>
<path style=" stroke:none;fill-rule:nonzero;fill:rgb(100%,100%,100%);fill-opacity:1;" d="M 235.953125 190.15625 L 244.953125 190.15625 L 244.953125 203.15625 L 235.953125 203.15625 Z M 235.953125 190.15625 "/>
<g style="fill:rgb(100%,0%,0%);fill-opacity:1;">
  <use xlink:href="#glyph0-2" x="235.953125" y="200.057617"/>
</g>
<path style="fill:none;stroke-width:1.2;stroke-linecap:butt;stroke-linejoin:miter;stroke:rgb(100%,0%,0%);stroke-opacity:1;stroke-miterlimit:10;" d="M 176.960938 195.578125 L 164.75 189.886719 "/>
<path style="fill:none;stroke-width:1.2;stroke-linecap:butt;stroke-linejoin:miter;stroke:rgb(0%,0%,0%);stroke-opacity:1;stroke-miterlimit:10;" d="M 164.75 189.886719 L 152.539062 184.199219 "/>
<path style=" stroke:none;fill-rule:nonzero;fill:rgb(100%,100%,100%);fill-opacity:1;" d="M 172.960938 189.078125 L 181.960938 189.078125 L 181.960938 202.078125 L 172.960938 202.078125 Z M 172.960938 189.078125 "/>
<g style="fill:rgb(100%,0%,0%);fill-opacity:1;">
  <use xlink:href="#glyph0-2" x="172.960938" y="198.979492"/>
</g>
<path style="fill:none;stroke-width:1.2;stroke-linecap:butt;stroke-linejoin:miter;stroke:rgb(0%,0%,0%);stroke-opacity:1;stroke-miterlimit:10;" d="M 151 181.425781 L 139.21875 187.960938 "/>
<path style="fill:none;stroke-width:1.2;stroke-linecap:butt;stroke-linejoin:miter;stroke:rgb(100%,0%,0%);stroke-opacity:1;stroke-miterlimit:10;" d="M 139.21875 187.960938 L 127.4375 194.496094 "/>
<path style="fill:none;stroke-width:1.2;stroke-linecap:butt;stroke-linejoin:miter;stroke:rgb(0%,0%,0%);stroke-opacity:1;stroke-miterlimit:10;" d="M 154.074219 186.96875 L 142.296875 193.507812 "/>
<path style="fill:none;stroke-width:1.2;stroke-linecap:butt;stroke-linejoin:miter;stroke:rgb(100%,0%,0%);stroke-opacity:1;stroke-miterlimit:10;" d="M 142.296875 193.507812 L 130.515625 200.042969 "/>
<path style=" stroke:none;fill-rule:nonzero;fill:rgb(100%,100%,100%);fill-opacity:1;" d="M 119.976562 190.769531 L 128.976562 190.769531 L 128.976562 203.769531 L 119.976562 203.769531 Z M 119.976562 190.769531 "/>
<g style="fill:rgb(100%,0%,0%);fill-opacity:1;">
  <use xlink:href="#glyph0-2" x="119.976562" y="200.670898"/>
</g>
<path style="fill:none;stroke-width:1.2;stroke-linecap:butt;stroke-linejoin:miter;stroke:rgb(100%,0%,0%);stroke-opacity:1;stroke-miterlimit:10;" d="M 67.144531 205.535156 L 53.773438 203.898438 "/>
<path style="fill:none;stroke-width:1.2;stroke-linecap:butt;stroke-linejoin:miter;stroke:rgb(0%,0%,0%);stroke-opacity:1;stroke-miterlimit:10;" d="M 53.773438 203.898438 L 40.398438 202.261719 "/>
<path style=" stroke:none;fill-rule:nonzero;fill:rgb(100%,100%,100%);fill-opacity:1;" d="M 63.144531 199.035156 L 72.144531 199.035156 L 72.144531 212.035156 L 63.144531 212.035156 Z M 63.144531 199.035156 "/>
<g style="fill:rgb(100%,0%,0%);fill-opacity:1;">
  <use xlink:href="#glyph0-2" x="63.144531" y="208.936523"/>
</g>
<path style="fill:none;stroke-width:1.2;stroke-linecap:butt;stroke-linejoin:miter;stroke:rgb(0%,0%,0%);stroke-opacity:1;stroke-miterlimit:10;" d="M 40.398438 202.261719 L 37.824219 189.039062 "/>
<path style="fill:none;stroke-width:1.2;stroke-linecap:butt;stroke-linejoin:miter;stroke:rgb(100%,0%,0%);stroke-opacity:1;stroke-miterlimit:10;" d="M 37.824219 189.039062 L 35.25 175.816406 "/>
<path style=" stroke:none;fill-rule:nonzero;fill:rgb(100%,100%,100%);fill-opacity:1;" d="M 31.25 169.316406 L 40.25 169.316406 L 40.25 182.316406 L 31.25 182.316406 Z M 31.25 169.316406 "/>
<g style="fill:rgb(100%,0%,0%);fill-opacity:1;">
  <use xlink:href="#glyph0-2" x="31.25" y="179.217773"/>
</g>
</g>
</svg>

<svg xmlns="http://www.w3.org/2000/svg" xmlns:xlink="http://www.w3.org/1999/xlink" width="300pt" height="300pt" viewBox="0 0 300 300"><defs><symbol overflow="visible"><path d="M.547 1.938V-7.75h5.5v9.688zm.625-.61h4.266v-8.47H1.171zm0 0"/></symbol><symbol overflow="visible" id="a"><path d="M1.078-8.016h1.47l3.546 6.704v-6.704h1.062V0H5.688L2.124-6.703V0H1.078zm0 0"/></symbol><symbol overflow="visible" id="b"><path d="M4.328-7.28c-.78 0-1.406.296-1.875.89-.46.585-.687 1.382-.687 2.39 0 1.012.226 1.813.687 2.406.47.586 1.094.875 1.875.875.79 0 1.414-.288 1.875-.874.457-.593.688-1.394.688-2.406 0-1.008-.23-1.805-.687-2.39-.46-.594-1.086-.89-1.875-.89zm0-.892c1.125 0 2.024.383 2.703 1.14C7.708-6.28 8.048-5.27 8.048-4c0 1.262-.34 2.273-1.016 3.03C6.353-.22 5.454.157 4.33.157S2.3-.22 1.625-.97c-.668-.75-1-1.757-1-3.03 0-1.27.332-2.28 1-3.03.676-.76 1.578-1.142 2.703-1.142zm0 0"/></symbol></defs><g><path fill="#fff" d="M0 0h300v300H0z"/><path d="M167.918 104.945l-12.883 3.942" stroke-width="1.2" stroke="#000" stroke-miterlimit="10" fill="none"/><path d="M155.035 108.887l-12.883 3.945M142.152 112.832l-9.855-9.184" stroke-width="1.2" stroke="#00f" stroke-miterlimit="10" fill="none"/><path d="M132.297 103.648l-9.856-9.183M136.102 139.086l3.023-13.125" stroke-width="1.2" stroke="#000" stroke-miterlimit="10" fill="none"/><path d="M139.125 125.96l3.027-13.128" stroke-width="1.2" stroke="#00f" stroke-miterlimit="10" fill="none"/><path d="M138.152 106.332h8v13h-8zm0 0" fill="#fff"/><use xlink:href="#a" x="138.152" y="116.233" fill="#00f"/><path d="M122.44 94.465l-25.76 7.883M96.68 102.348l-6.055 26.257M90.625 128.605l-25.762 7.887M89.906 135.453l-20.613 6.313M110.336 146.973l-19.71-18.368M64.863 136.492l-6.05 26.254M58.813 162.746l19.71 18.367M56.46 169.22l15.77 14.694" stroke-width="1.2" stroke="#000" stroke-miterlimit="10" fill="none"/><path d="M35.25 175.816l11.78-6.535" stroke-width="1.2" stroke="#f00" stroke-miterlimit="10" fill="none"/><path d="M47.03 169.28l11.782-6.534M78.523 181.113l25.762-7.886M78.523 181.113l-5.69 12.21" stroke-width="1.2" stroke="#000" stroke-miterlimit="10" fill="none"/><path d="M72.832 193.324l-5.687 12.21" stroke-width="1.2" stroke="#f00" stroke-miterlimit="10" fill="none"/><path d="M104.285 173.227l6.05-26.254M98.715 169.18l4.84-21.004" stroke-width="1.2" stroke="#000" stroke-miterlimit="10" fill="none"/><path d="M136.102 139.086l-27.157 3.34 2.785 9.094zm0 0"/><path d="M136.102 139.086l19.71 18.37" stroke-width="1.2" stroke="#000" stroke-miterlimit="10" fill="none"/><path d="M155.813 157.457l27.355-.484-1.816-9.336zm0 0"/><path d="M152.54 184.2l3.273-26.743M182.258 152.305l13.07 23.562M196.13 129.207l-13.872 23.098M200.176 134.777l-11.094 18.48M195.328 175.867l26.942.46M198.133 169.574l21.55.367M195.328 175.867l-9.183 9.856" stroke-width="1.2" stroke="#000" stroke-miterlimit="10" fill="none"/><path d="M186.145 185.723l-9.184 9.855" stroke-width="1.2" stroke="#f00" stroke-miterlimit="10" fill="none"/><path d="M222.27 176.328l13.867-23.1" stroke-width="1.2" stroke="#000" stroke-miterlimit="10" fill="none"/><path d="M239.953 196.656l-8.844-10.164" stroke-width="1.2" stroke="#f00" stroke-miterlimit="10" fill="none"/><path d="M231.11 186.492l-8.84-10.164M236.137 153.227l-13.07-23.56M229.285 153.945l-10.453-18.847M236.137 153.227l13.13 3.027" stroke-width="1.2" stroke="#000" stroke-miterlimit="10" fill="none"/><path d="M249.266 156.254l13.125 3.023" stroke-width="1.2" stroke="#f00" stroke-miterlimit="10" fill="none"/><path d="M223.066 129.668l-26.937-.46" stroke-width="1.2" stroke="#000" stroke-miterlimit="10" fill="none"/><path d="M262.39 159.277l1.18 13.422" stroke-width="1.2" stroke="#f00" stroke-miterlimit="10" fill="none"/><path d="M263.57 172.7l1.18 13.417" stroke-width="1.2" stroke="#000" stroke-miterlimit="10" fill="none"/><path d="M258.39 152.777h9v13h-9zm0 0" fill="#fff"/><use xlink:href="#b" x="258.391" y="162.679" fill="#f00"/><path d="M264.75 186.117l-12.398 5.27" stroke-width="1.2" stroke="#000" stroke-miterlimit="10" fill="none"/><path d="M252.352 191.387l-12.4 5.27" stroke-width="1.2" stroke="#f00" stroke-miterlimit="10" fill="none"/><path d="M235.953 190.156h9v13h-9zm0 0" fill="#fff"/><use xlink:href="#b" x="235.953" y="200.058" fill="#f00"/><path d="M176.96 195.578l-12.21-5.69" stroke-width="1.2" stroke="#f00" stroke-miterlimit="10" fill="none"/><path d="M164.75 189.887l-12.21-5.688" stroke-width="1.2" stroke="#000" stroke-miterlimit="10" fill="none"/><path d="M172.96 189.078h9v13h-9zm0 0" fill="#fff"/><use xlink:href="#b" x="172.961" y="198.979" fill="#f00"/><path d="M151 181.426l-11.78 6.535" stroke-width="1.2" stroke="#000" stroke-miterlimit="10" fill="none"/><path d="M139.22 187.96l-11.782 6.536" stroke-width="1.2" stroke="#f00" stroke-miterlimit="10" fill="none"/><path d="M154.074 186.97l-11.777 6.538" stroke-width="1.2" stroke="#000" stroke-miterlimit="10" fill="none"/><path d="M142.297 193.508l-11.78 6.535" stroke-width="1.2" stroke="#f00" stroke-miterlimit="10" fill="none"/><path d="M119.977 190.77h9v13h-9zm0 0" fill="#fff"/><use xlink:href="#b" x="119.977" y="200.671" fill="#f00"/><path d="M67.145 205.535l-13.372-1.637" stroke-width="1.2" stroke="#f00" stroke-miterlimit="10" fill="none"/><path d="M53.773 203.898l-13.375-1.636" stroke-width="1.2" stroke="#000" stroke-miterlimit="10" fill="none"/><path d="M63.145 199.035h9v13h-9zm0 0" fill="#fff"/><use xlink:href="#b" x="63.145" y="208.937" fill="#f00"/><path d="M40.398 202.262l-2.574-13.223" stroke-width="1.2" stroke="#000" stroke-miterlimit="10" fill="none"/><path d="M37.824 189.04l-2.574-13.224" stroke-width="1.2" stroke="#f00" stroke-miterlimit="10" fill="none"/><path d="M31.25 169.316h9v13h-9zm0 0" fill="#fff"/><use xlink:href="#b" x="31.25" y="179.218" fill="#f00"/></g></svg>
